X: 1
T: Toselli Serenata
C: Enrico Toselli (c. 1900)
M: 3/4
L: 1/8
%%contbarnb 1
K: A
|:\
"A"a3 efc | e4 A2 | A2 c2 g2 | "E7"f4 e2 |
b3 c'd'a | g3 abf | efge Bc | "A"A6- | A2z2z2 :|
|:\
"A"AB c3e | "E7"eB B4 | Bc d3 f | "A"fc c3A | "D"a4 gf |
"A"ec ABce | "E7"c4 B2 | "A"e6 | "D"f3 aba | "A"c'6- |
c'a gfeA | "E7"d4 Bc/d/ | "A"e3 f (3gba | "F#m"c3 d (3egf | "Bm"fB B4 |
"A"c3 e d/c/B/A/ | "E7"B4- BA | [a3A3] efc | e4A2 |
A2 c2 g2 | "E7"f4 e2 | b3 c'd'a | g3 abf |
"E7"efge bc' [1 "A"a4z2 :|[2 "A"a4 f2 | a4 "E7"b2 | "A"c'6- | c'z z2z2 |]
